X:1
T:Title
%%score 1 { ( 2 3 6 ) | ( 4 5 ) }
L:1/8
Q:1/4=46
M:4/4
K:D
V:1 treble nm="Voice"
V:2 treble nm="Organ, Harmonium or Piano"
V:3 treble 
V:6 treble 
V:4 treble 
V:5 treble 
V:1
"^Adagio" z2 z4 | %1
w: |
w: |
!p! z"^espress."!<(! ^GGG G3!<)!"^Ich sehe dich in tausend Bildern""^Novalis (Friedrich von Hardenberg, 1772-1801)\n" F | %2
w: Ich se- he dich in|
w: |
 B"^Max Reger, Op.105 No.1."!>(!BcF!>)! z2!p!!<(! ^G2!<)! |[M:4/4]!>(! ^G4 C2!>)! z2 | %4
w: tau- send Bil- dern, Ma-|ri- a,|
w: * * * * (mein|Je- sus,)|
 z4 z!<(! c2 B/A/!<)! | ^G3!>(! B B2!>)! z2 | z2 z!p!!<(! ^G (c2 G)G!<)! | %7
w: lieb- lich *|aus- ge- drückt,|doch Keins * von|
w: |||
 B>B F!>(!A A2 ^G!>)!!p!F |!<(! C^D E3!<)! F!>(!F^G |!p! B3!>)! z z4 | z!<(! ^G!>(! G4!<)! C2!>)! | %11
w: al- len kann dich schil- dern, wie|mei- ne See- le dich er-|blickt.|Ich weiß nur,|
w: ||||
 z!<(! c2 B"^molto" d>!<)!c!>(! cB!>)! | %12
w: daas der Welt Ge- tüm- mel|
w: |
 z"^sempre espress."!<(! EF^G"^dolciss." A!<)!c!>(! d2-!>)! |!>(! dc!p! c3!>)! z z2 | %14
w: seit- dem mir wie ein Traum|* ver- weht,|
w: ||
 z!<(! EAB c>c!<)! B"^dolciss."A | (c2!>(! ^e4) ^G2!>)! | z2!p!!<(! ^G2 B3 !courtesy!=d!<)! | %17
w: und ein un- nenn- bar sü- ßer|Him- * mel|mir e- wig,|
w: |||
 dBcA"^rit."!>(! B2 E2 | F4!>)!!p! z4 | !fermata!z8 |] %20
w: e- wig im Ge- mü- te|steht.||
w: |||
V:2
!pp! ([fd']2 [ca]2 [Bdb]2 | [^Gc^g]4 z2)!<(! c2 | B2!<)! A2 ^G4- |[M:4/4]!>(! G6!pp! (x2!>)! | %4
 x4!<(! e4)!<)! | x8 |!pp! [ca]2!<(! ([^D^G]2 [!courtesy!=EA]2 [DG]2!<)! | %7
 [!courtesy!=B,!courtesy!=D]2!>(! [A,C]2 [=CA]4)!>)! |!pp!!<(! ([cc']4!<)! [=c=c']4 | %9
 b2)!pp! [f!courtesy!=d']2 [!courtesy!^ca]2 [B!courtesy!=db]2 | [^Gc^g]6- ([Fcf]2 | %11
 [=Fc=f]4-"^molto"!>(! [FBf]4 |!p!!<(! [EGe]4!>)! !courtesy!x4-)!<)! | %13
!>(! (x2 [C^A]3) z!>)!!pp! ([^ac'-][=ac'] |!<(! [eac'e']4 [^dac'^d']4!<)! |!>(! x8) | %16
 (!courtesy!x4 x2- !courtesy!x2!>)! | (x2 [c-fa-]2)"^rit."!>(! a4 |!pp!!<(! d2 d4!>)! e2)!<)! | %19
!>(! !fermata!A8!>)! |] %20
V:3
 x4 x2 | x4 z2 F2- | F E2 ^D- D4 |[M:4/4] ^E6 [!courtesy!=d!courtesy!=d']2 | [c^g]2 [Bb]2- B2 A2 | %5
 ([ee']2- [eb]2!>(! [!courtesy!=dd']2- [da]2)!>)! | x8 | x8 | f3 !courtesy!=g fe!>(! ^d2 | %9
 [Be]2 x2 x4!>)! | x4!>(! x4 | x8!>)! | x8 | x8 | x8 | [^e^gc'^e']8 | x4 x4 | %17
 x4 [B!courtesy!=d]2 [ce]2 | [F=c]6 [E-_B]2 | E4!ppp! !fermata!D4 |] %20
V:4
 ([DA]2- [FA]2 x2- | x4 z2)[K:bass] C2 | [G,B,]2 C2-!>(! C^A, ^B,2!>)! |[M:4/4] [^G,C]6 [B,F]2 | %4
 [C!courtesy!=E]2 [^G,^D]2 [A,C]4 | ^G4 F4 | %6
 x2"^This work is published under the Creative Commons Attribution-Share Alike 3.0\nGermany License, which explicitly permits free copying, distribution and performance\nof the work without charge, provided authorship and licensing terms are mentioned." [^G,^B,]2 [F,C]2 [G,B,]2 | %7
"^Typeset by Christoph Lahme\nVersion 1.0 (2010/4/12)" [^G,,^E,]2 [A,,F,]2-"^Ped." [A,,F,]4 | %8
[K:treble] ^A4 =A4 | ^G2 ([!courtesy!=DA-]2 ([FA]2 x2-)) | x4[K:bass] [A,C]4- | [A,C]4 [^G,B,]4- | %12
 [G,B,]4 [!courtesy!^F,A,]4 | x2!p! [F,,F,]3 z z2 | z4[K:treble] [Fc]4- |"^dolciss." x8 | %16
 [!courtesy!=E-^GB-]4 [B,FB]4 | [F!courtesy!=A]4- ([FA]2 [E!courtesy!=G]2 | %18
[K:bass] A,4-) A,2 [G,!courtesy!^C]2 |"^Ped." !fermata![A,,F,]8 |] %20
V:5
 x4 [B,F]2- | [B,^E]4 z2[K:bass] A,2 | G,2 F,2 ^G,4 |[M:4/4] C,6 x2 | x4 x4 | (C2 E2 B,2 D2) | %6
 [^DF]2 x2 x4 | x4 !tenuto!D,,4 |[K:treble] F4 E4- | E2 x2 x2 [B,F]2- | [B,^E]4[K:bass] x4 | %11
 !courtesy!=D,8 | !courtesy!^C,6 B,,2- | x8 | x4[K:treble] x4 | [C^Gc]8 | (x4 x4 | x4 (A,4 | %18
[K:bass] x4) !courtesy!=D,4) | !fermata!D,,8 |] %20
V:6
 x6 | x8 | x8 |[M:4/4] x8 | x8 | x8 | x8 | x8 | x8 | x8 | x8 | x8 | x8 | x8 | x8 | x8 | %16
 [!courtesy!=e^gb!courtesy!=e']4 [^dfb^d']2 [=dfb=d']2 | [df!courtesy!=ad']2 x6 | x8 | x8 |] %20

